X:743
T:Baloo Balilli
S:Mary McCann, Edinburgh, via Shetland book?
Z:Nigel Gatherer
M:3/4
L:1/8
Q:130
K:D
DE | F4 FE | E2 D2 D2 | E4 FE | E2 D2 
DE | F4 AF | FE D2 D2 | E4 F2 | D4
AA | B4 BA | A2 F2 DE | F4 FE | F2 A2
AA | B4 BA | A2 F2 D2 | E4 F2 | D4    ||
<end>
<start>
